libs/ui/packages/crypto-icons/src/svg/STRD.svg

<svg width="24" height="24" viewBox="0 0 24 24" fill="none">
<path fill="#E50571" d="M 24 12 C 24 18.628906 18.628906 24 12 24 C 5.371094 24 0 18.628906 0 12 C 0 5.371094 5.371094 0 12 0 C 18.628906 0 24 5.371094 24 12 Z M 24 12 "/>
<path fill="#FFF" d="M 12.316406 19.046875 C 10.578125 19.046875 9.148438 18.671875 8.042969 17.914062 C 7.027344 17.222656 6.375 16.261719 6.097656 15.023438 C 6.058594 14.832031 6.171875 14.648438 6.363281 14.601562 L 8.773438 13.976562 C 8.984375 13.921875 9.1875 14.054688 9.246094 14.265625 C 9.371094 14.71875 9.542969 15.082031 9.773438 15.359375 C 10.078125 15.714844 10.445312 15.972656 10.875 16.136719 C 11.328125 16.28125 11.808594 16.347656 12.328125 16.347656 C 13.113281 16.347656 13.699219 16.214844 14.074219 15.945312 C 14.449219 15.65625 14.640625 15.3125 14.640625 14.898438 C 14.640625 14.488281 14.457031 14.167969 14.101562 13.957031 C 13.746094 13.726562 13.171875 13.535156 12.382812 13.390625 L 11.636719 13.257812 C 10.703125 13.074219 9.847656 12.835938 9.082031 12.527344 C 8.3125 12.203125 7.691406 11.769531 7.230469 11.210938 C 6.757812 10.65625 6.527344 9.9375 6.527344 9.0625 C 6.527344 7.738281 7.007812 6.71875 7.976562 6.019531 C 8.945312 5.300781 10.214844 4.945312 11.796875 4.945312 C 13.285156 4.945312 14.523438 5.28125 15.511719 5.941406 C 16.386719 6.539062 17 7.285156 17.335938 8.207031 C 17.40625 8.398438 17.300781 8.601562 17.097656 8.660156 L 14.6875 9.398438 C 14.476562 9.464844 14.257812 9.332031 14.1875 9.121094 C 14.027344 8.640625 13.765625 8.292969 13.410156 8.0625 C 12.980469 7.777344 12.441406 7.632812 11.796875 7.632812 C 11.15625 7.632812 10.65625 7.746094 10.320312 7.976562 C 9.984375 8.1875 9.8125 8.496094 9.8125 8.890625 C 9.8125 9.320312 9.992188 9.636719 10.347656 9.859375 C 10.703125 10.0625 11.195312 10.203125 11.796875 10.320312 L 12.546875 10.453125 C 13.554688 10.636719 14.457031 10.875 15.265625 11.183594 C 16.089844 11.472656 16.734375 11.894531 17.203125 12.453125 C 17.683594 12.988281 17.933594 13.726562 17.933594 14.660156 C 17.933594 16.0625 17.425781 17.144531 16.398438 17.914062 C 15.390625 18.664062 14.035156 19.046875 12.335938 19.046875 Z M 12.316406 19.046875 "/>
</svg>

<svg width="24" height="24" viewBox="0 0 24 24" fill="none"><path fill="#e50571" d="M24 12c0 6.629-5.371 12-12 12S0 18.629 0 12 5.371 0 12 0s12 5.371 12 12m0 0"/><path fill="#fff" d="M12.316 19.047c-1.738 0-3.168-.375-4.273-1.133-1.016-.691-1.668-1.652-1.945-2.89a.356.356 0 0 1 .265-.422l2.41-.625a.39.39 0 0 1 .473.289c.125.453.297.816.527 1.093q.457.533 1.102.778c.453.144.934.21 1.453.21.785 0 1.371-.132 1.746-.402.375-.289.567-.633.567-1.047 0-.41-.184-.73-.54-.941-.355-.23-.93-.422-1.718-.566l-.746-.133c-.934-.184-1.79-.422-2.555-.73-.77-.325-1.39-.758-1.852-1.317-.472-.555-.703-1.274-.703-2.149 0-1.324.48-2.343 1.45-3.042.968-.72 2.238-1.075 3.82-1.075 1.488 0 2.726.336 3.715.996.875.598 1.488 1.344 1.824 2.266a.344.344 0 0 1-.238.453l-2.41.738c-.211.067-.43-.066-.5-.277-.16-.48-.422-.828-.778-1.059q-.646-.429-1.613-.43c-.64 0-1.14.114-1.477.345-.336.21-.508.52-.508.914 0 .43.18.746.536.968.355.204.847.344 1.449.461l.75.133c1.008.184 1.91.422 2.719.73q1.235.434 1.937 1.27c.48.535.73 1.274.73 2.207 0 1.402-.507 2.485-1.535 3.254-1.007.75-2.363 1.133-4.062 1.133Zm0 0"/></svg>
